X:1
T:Invitation (Hastings), CM
T:Invitation (Hastings), CM
T:Thomas Hastings, 1831
T:Public Domain Courtesy of the Cyber Hymnal™
C:Thomas Hastings, 1831
Z:Public Domain
Z:Courtesy of the Cyber Hymnal™
%%score ( 1 2 ) ( 3 4 )
L:1/8
Q:1/4=125
M:3/4
K:Ab
V:1 treble 
V:2 treble 
V:3 bass 
V:4 bass 
V:1
 [CE]2 | [Cc]4 [DB]2 | [CA]4 [CE]2 | ([DF]2 [FA]2) [DF]2 | [CE]4 [CE]2 | ([DF]2 [EG]2) [EA]2 | %6
 (B2 d2) [Ec]2 | [EB]4 [CE]2 | [Cc]4 [DB]2 | A4 [CE]2 | e4 [Ed]2 | [Ec]4 [CE]2 | (E2 F2) [EG]2 | %13
 (A2 c2) [DB]2 | [CA]4 |] %15
V:2
 x2 | x6 | x6 | x6 | x6 | x6 | E4 x2 | x6 | x6 | (C2 E2) x2 | (C2 E2) x2 | x6 | D4 x2 | E4 x2 | %14
 x4 |] %15
V:3
 [A,,E,]2 | [A,,E,]4 [A,,G,]2 | [A,,A,]4 [A,,A,]2 | [A,,A,]4 [A,,A,]2 | [A,,A,]4 [A,,A,]2 | %5
 (A,2 B,2) [C,A,]2 | ([B,,G,]2 [G,,B,]2) [A,,A,]2 | [E,G,]4 [A,,E,]2 | [A,,E,]4 [A,,G,]2 | %9
 A,4 [E,A,]2 | (A,2 C2) [G,B,]2 | A,4 [A,,A,]2 | [D,A,]4 [D,B,]2 | A,4 [E,G,]2 | [A,,A,]4 |] %15
V:4
 x2 | x6 | x6 | x6 | x6 | D,4 x2 | x6 | x6 | x6 | (A,,2 C,2) x2 | E,4 x2 | A,4 x2 | x6 | %13
 (C,2 E,2) x2 | x4 |] %15

